img/icons/user/Edit_Pencil_Line_01.svg

<svg width="20" height="21" viewBox="0 0 20 21" fill="none" xmlns="http://www.w3.org/2000/svg">
<path d="M3.33333 16.7544H2.33333C2.33333 17.3067 2.78105 17.7544 3.33333 17.7544V16.7544ZM16.6667 17.7544C17.219 17.7544 17.6667 17.3067 17.6667 16.7544C17.6667 16.2021 17.219 15.7544 16.6667 15.7544V17.7544ZM3.33333 13.4211L2.62623 12.714C2.43869 12.9015 2.33333 13.1559 2.33333 13.4211H3.33333ZM12.3905 4.36387L11.6834 3.65676L11.6834 3.65676L12.3905 4.36387ZM14.2761 4.36387L13.569 5.07097V5.07097L14.2761 4.36387ZM15.7238 5.81158L16.4309 5.10447V5.10447L15.7238 5.81158ZM15.7239 7.6972L15.0168 6.99009L15.0168 6.99009L15.7239 7.6972ZM6.66667 16.7544L6.66667 17.7544C6.93189 17.7544 7.18624 17.649 7.37377 17.4615L6.66667 16.7544ZM16.2807 6.49691L17.2318 6.1879V6.1879L16.2807 6.49691ZM16.2807 7.01188L15.3297 6.70286L16.2807 7.01188ZM13.0758 3.80702L12.7668 2.85597L13.0758 3.80702ZM13.5909 3.80702L13.8999 2.85597L13.5909 3.80702ZM10.7071 6.0473C10.3166 5.65678 9.68342 5.65678 9.29289 6.0473C8.90237 6.43783 8.90237 7.07099 9.29289 7.46152L10.7071 6.0473ZM12.6262 10.7948C13.0168 11.1854 13.6499 11.1854 14.0404 10.7948C14.431 10.4043 14.431 9.77116 14.0404 9.38064L12.6262 10.7948ZM3.33333 17.7544H16.6667V15.7544H3.33333V17.7544ZM4.33333 16.7544V13.4211H2.33333V16.7544H4.33333ZM4.04044 14.1282L13.0976 5.07097L11.6834 3.65676L2.62623 12.714L4.04044 14.1282ZM13.569 5.07097L15.0167 6.51869L16.4309 5.10447L14.9832 3.65676L13.569 5.07097ZM15.0168 6.99009L5.95956 16.0473L7.37377 17.4615L16.431 8.40431L15.0168 6.99009ZM6.66666 15.7544L3.33333 15.7544L3.33334 17.7544L6.66667 17.7544L6.66666 15.7544ZM15.0167 6.51869C15.1009 6.60281 15.167 6.66898 15.2233 6.72704C15.2795 6.78512 15.3159 6.8248 15.3405 6.85383C15.3906 6.91285 15.3558 6.88637 15.3297 6.80593L17.2318 6.1879C17.1438 5.91719 16.9956 5.71304 16.8652 5.55947C16.7424 5.4148 16.5843 5.25782 16.4309 5.10447L15.0167 6.51869ZM16.431 8.40431C16.5843 8.25096 16.7424 8.09398 16.8652 7.94931C16.9956 7.79572 17.1438 7.59158 17.2318 7.32089L15.3297 6.70286C15.3558 6.62244 15.3906 6.59596 15.3405 6.65496C15.3159 6.684 15.2795 6.72367 15.2233 6.78175C15.167 6.8398 15.1009 6.90598 15.0168 6.99009L16.431 8.40431ZM15.3297 6.80593C15.3188 6.77246 15.3188 6.73634 15.3297 6.70286L17.2318 7.32089C17.3514 6.95268 17.3514 6.55611 17.2318 6.1879L15.3297 6.80593ZM13.0976 5.07097C13.1817 4.98686 13.2479 4.92072 13.306 4.86447C13.364 4.8082 13.4037 4.77187 13.4327 4.74723C13.4917 4.69715 13.4653 4.73195 13.3849 4.75808L12.7668 2.85597C12.4961 2.94391 12.292 3.09213 12.1384 3.22252C11.9938 3.34533 11.8368 3.50341 11.6834 3.65676L13.0976 5.07097ZM14.9832 3.65676C14.8299 3.50346 14.673 3.34538 14.5284 3.22259C14.3748 3.0922 14.1707 2.94393 13.8999 2.85597L13.2819 4.75808C13.2014 4.73193 13.1749 4.69708 13.2339 4.74716C13.2629 4.7718 13.3026 4.80814 13.3606 4.86442C13.4187 4.9207 13.4849 4.98684 13.569 5.07097L14.9832 3.65676ZM13.3849 4.75808C13.3514 4.76895 13.3154 4.76895 13.2819 4.75808L13.8999 2.85597C13.5317 2.73633 13.135 2.73633 12.7668 2.85597L13.3849 4.75808ZM9.29289 7.46152L12.6262 10.7948L14.0404 9.38064L10.7071 6.0473L9.29289 7.46152Z" fill="#8C8D92"/>
</svg>

<svg width="20" height="21" fill="none" xmlns="http://www.w3.org/2000/svg"><path d="M3.333 16.754h-1a1 1 0 0 0 1 1v-1Zm13.334 1a1 1 0 1 0 0-2v2ZM3.333 13.421l-.707-.707a1 1 0 0 0-.293.707h1Zm9.057-9.057-.707-.707.707.707Zm1.886 0-.707.707.707-.707Zm1.448 1.448.707-.708-.707.708Zm0 1.885-.707-.707.707.707Zm-9.057 9.057v1a1 1 0 0 0 .707-.293l-.707-.707ZM16.28 6.497l.95-.31-.95.31Zm0 .515-.951-.31.95.31Zm-3.205-3.205-.31-.951.31.951Zm.515 0 .309-.951-.31.951Zm-2.884 2.24a1 1 0 0 0-1.414 1.415l1.414-1.415Zm1.92 4.748A1 1 0 1 0 14.04 9.38l-1.414 1.414Zm-9.294 6.96h13.334v-2H3.333v2Zm1-1V13.42h-2v3.333h2Zm-.293-2.627 9.058-9.057-1.415-1.414-9.057 9.057 1.414 1.414Zm9.529-9.057 1.448 1.448 1.414-1.415-1.448-1.447L13.57 5.07Zm1.448 1.92L5.96 16.046l1.414 1.415 9.057-9.058-1.414-1.414Zm-8.35 8.763H3.333v2h3.334v-2Zm8.35-9.235c.084.084.15.15.206.208.056.058.093.098.117.127.05.059.016.032-.01-.048l1.902-.618a1.85 1.85 0 0 0-.367-.629c-.123-.144-.28-.301-.434-.455L15.017 6.52Zm1.414 1.885c.153-.153.311-.31.434-.455a1.85 1.85 0 0 0 .367-.628l-1.902-.618c.026-.08.06-.107.01-.048a2.747 2.747 0 0 1-.117.127c-.056.058-.122.124-.206.208l1.414 1.414Zm-1.1-1.598a.167.167 0 0 1 0-.103l1.902.618c.12-.368.12-.765 0-1.133l-1.902.618ZM13.098 5.07l.208-.207c.058-.056.098-.092.127-.117.059-.05.032-.015-.048.011l-.618-1.902a1.85 1.85 0 0 0-.629.367c-.144.122-.301.28-.455.434l1.415 1.414Zm1.885-1.414a7.469 7.469 0 0 0-.455-.434 1.85 1.85 0 0 0-.628-.367l-.618 1.902c-.08-.026-.107-.06-.048-.01.029.024.069.06.127.116l.208.207 1.414-1.414Zm-1.598 1.101a.167.167 0 0 1-.103 0l.618-1.902a1.833 1.833 0 0 0-1.133 0l.618 1.902ZM9.293 7.462l3.333 3.333L14.04 9.38l-3.333-3.334-1.414 1.415Z" fill="#8C8D92"/></svg>
